X:1
T:Der Tag, Der Ist, 76.76.77.67.76
T:Der Tag, Der Ist, 76.76.77.67.76
T:15th Century German Tune
T:Public Domain Courtesy of the Cyber Hymnal™
C:15th Century German Tune
Z:Public Domain
Z:Courtesy of the Cyber Hymnal™
%%score ( 1 2 ) ( 3 4 )
L:1/8
Q:1/4=110
M:4/4
K:G
V:1 treble 
V:2 treble 
V:3 bass 
V:4 bass 
V:1
 [DG]2 [EG]2 [FA]2 [GB]2 | [Gc]2 [FA]2 [DG]4 | [DA]2 [B,G]2 [CE]2 [DF]2 | ([B,G]2 [DA]2) [DG]4 | %4
 [DG]2 [EG]2 [FA]2 [GB]2 | [Gc]2 [FA]2 [DG]4 | [DA]2 [B,G]2 [CE]2 [DF]2 | ([B,G]2 [DA]2) [DG]4 | %8
 [Gd]2 [Gd]2 [Ge]2 [Fd]2 | [DB]2 [E^c]2 [Fd]4 | [Gd]2 [Gd]2 [Ge]2 [Fd]2 | [DB]2 [FA]2 G4 | %12
 [CE]2 [CF]2 [DG]2 [A,E]2 | (D2 ^C2) [A,D]4 | [DG]2 [EG]2 [FA]2 [GB]2 | [Gc]2 [FA]2 [DG]4 | %16
 [DA]2 [B,G]2 [CE]2 [CF]2 | [DG]2 [A,E]2 [A,D]4 | [CE]2 [G,C]2 [CE]2 [DF]2 | %19
 ([B,G]2 [DA]2) [DG]4 |] %20
V:2
 x8 | x8 | x8 | x8 | x8 | x8 | x8 | x8 | x8 | x8 | x8 | x4 G4 | x8 | A,4 x4 | x8 | x8 | x8 | x8 | %18
 x8 | x8 |] %20
V:3
 [G,B,]2 [E,B,]2 [D,D]2 [G,D]2 | [C,E]2 [D,D]2 [G,,B,]4 | [D,F,]2 [E,G,]2 [A,,A,]2 [D,A,]2 | %3
 ([E,G,]2 [D,F,]2) [G,,B,]4 | [G,B,]2 [E,B,]2 [D,D]2 [G,D]2 | [C,E]2 [D,D]2 [G,,B,]4 | %6
 [D,F,]2 [E,G,]2 [A,,A,]2 [D,A,]2 | ([E,G,]2 [D,F,]2) [G,,B,]4 | [G,B,]2 [G,B,]2 [C,C]2 [D,A,]2 | %9
 [G,B,]2 [E,G,]2 [D,A,]4 | [G,B,]2 [G,B,]2 [C,C]2 [D,A,]2 | G,2 [D,A,]2 [G,,B,]4 | %12
 [C,G,]2 [A,,A,]2 [B,,D,]2 [^C,E,]2 | ([D,F,]2 [A,,E,]2) [D,F,]4 | [G,,B,]2 [E,B,]2 [D,D]2 [G,D]2 | %15
 [C,E]2 [D,D]2 [G,,B,]4 | [D,F,]2 [E,G,]2 [C,G,]2 [A,,A,]2 | [B,,D,]2 [^C,E,]2 [D,F,]4 | %18
 [C,G,]2 [C,E,]2 [A,,A,]2 [D,A,]2 | ([E,G,]2 [D,F,]2) [G,,B,]4 |] %20
V:4
 x8 | x8 | x8 | x8 | x8 | x8 | x8 | x8 | x8 | x8 | x8 | G,2 x6 | x8 | x8 | x8 | x8 | x8 | x8 | x8 | %19
 x8 |] %20

